static/images/immudb/runs-on/java.svg

<svg width="150" height="81" viewBox="0 0 150 81" fill="none" xmlns="http://www.w3.org/2000/svg">
<path fill-rule="evenodd" clip-rule="evenodd" d="M97.8205 59.347C97.8205 59.9204 96.387 60.7805 96.1003 60.7805C94.0934 61.9273 91.2263 62.7874 89.5061 61.0672C87.7859 59.347 88.3593 55.9066 90.0795 54.7598C90.9396 54.1864 92.3731 53.8997 93.52 53.8997C94.6668 53.8997 96.6737 53.613 97.8205 53.613V59.347ZM84.6322 42.145L85.4923 45.2987C86.9258 45.012 87.4992 44.4386 89.5061 44.1519C90.9396 43.8652 92.6598 43.5785 94.38 43.8652C96.1003 44.1519 96.9604 44.7253 97.5338 45.8721C97.8205 46.4455 98.1072 47.3056 98.1072 47.879V50.4593C98.1072 50.4593 93.2332 50.746 92.3731 51.0327C87.4992 51.6061 82.6253 54.1864 83.4854 60.2071C84.0588 63.9342 86.0657 65.6544 89.7928 66.2278C91.7998 66.5145 93.2332 66.2278 94.9535 65.3677C95.8136 65.081 96.387 64.7943 96.9604 64.2209C97.8205 63.6475 98.3939 63.0741 98.6806 62.7874L99.254 65.3677H103.268C103.268 64.5076 103.268 55.0465 103.268 53.8997C103.268 51.8928 103.268 50.1726 103.268 48.1657C103.268 46.1588 103.268 44.7253 102.121 43.5785C99.5407 39.278 93.8067 39.5647 88.9327 40.7115C87.7859 40.7115 85.2056 41.5716 84.6322 42.145Z" fill="#E30F13"/>
<path fill-rule="evenodd" clip-rule="evenodd" d="M144.839 59.6337C144.553 59.9204 144.266 60.2071 143.693 60.4938C142.546 61.3539 141.112 61.9273 139.679 62.214C135.378 62.7874 134.232 58.2002 135.665 55.9066C137.099 53.3263 141.686 53.613 144.553 53.613L144.839 59.6337ZM131.365 42.145C131.365 42.7184 131.938 44.7253 132.225 45.2987C133.085 45.012 134.518 44.4386 136.238 44.1519C138.819 43.5785 142.833 43.2918 144.266 45.8721C144.839 47.0189 145.126 50.1726 144.839 50.4593C144.553 50.746 142.546 50.746 141.972 50.746C139.105 51.0327 136.812 51.0327 134.518 52.4662C131.938 53.8997 129.931 56.1933 130.218 60.2071C130.791 63.9342 132.798 65.6544 136.525 66.2278C139.392 66.5145 141.399 65.9411 143.693 64.5076C144.553 63.9342 145.126 63.3608 145.413 63.0741L145.986 65.6544H150V48.4524C150 46.4455 149.713 45.012 148.853 43.5785C146.273 39.278 140.252 39.5647 135.665 40.7115C134.518 40.7115 132.225 41.5716 131.365 42.145Z" fill="#E30F13"/>
<path fill-rule="evenodd" clip-rule="evenodd" d="M113.876 65.3677H120.183C120.47 65.3677 120.756 64.2209 121.043 63.9342C121.33 63.3608 121.33 63.0741 121.617 62.5007C121.903 61.6406 122.477 60.4938 122.763 59.6337C124.197 55.6199 125.63 51.0327 126.49 47.0189C126.777 45.8721 127.924 40.9982 127.924 40.1381H123.337C122.19 40.1381 122.763 40.1381 122.477 42.145C122.19 44.4386 121.617 46.4455 121.33 48.4524C121.043 49.8859 118.176 59.347 117.889 59.9204L116.456 54.7598C115.883 53.0396 115.596 51.3194 115.022 49.8859L112.442 43.0051C112.155 42.145 111.869 41.2849 111.582 40.4248H106.135C106.135 40.9982 109.862 52.1795 110.149 53.0396C110.722 55.0465 111.582 57.0534 112.155 59.347C112.442 61.3539 113.302 63.3608 113.876 65.3677Z" fill="#E30F13"/>
<path fill-rule="evenodd" clip-rule="evenodd" d="M74.0245 39.8514V61.6406C74.0245 65.6544 72.591 70.2416 68.5771 71.6751C68.8638 72.2485 70.5841 73.9687 71.1575 74.5421C72.591 74.2554 74.5979 73.1086 75.1713 72.2485C76.3181 71.1017 77.1782 70.2416 78.0383 68.5214C79.7585 65.081 79.4718 61.3539 79.4718 57.0534C79.4718 48.4524 79.4718 39.8514 79.4718 31.2504C78.8984 31.2504 75.1713 31.2504 74.0245 31.2504V39.8514Z" fill="#E30F13"/>
<path fill-rule="evenodd" clip-rule="evenodd" d="M29.8725 43.5784L28.1523 40.9981C27.5789 40.138 27.0055 39.2779 26.4321 38.4178C25.572 36.6976 24.4252 34.6907 23.8518 32.6838C22.9917 28.9567 25.2853 26.3764 27.2922 24.0828C27.5789 23.5094 28.1523 23.2227 28.439 22.936C30.7326 20.6424 33.5996 17.7754 35.8932 15.4818C38.1868 13.1882 39.6203 10.6079 39.907 6.88081C40.1937 4.87391 39.6203 0.860101 38.1868 0C38.4735 2.867 38.7602 4.8739 37.6134 8.02761C36.1799 11.468 33.8863 13.4749 31.306 15.4818C29.2991 17.202 25.8587 20.069 24.1385 21.7892C22.705 22.936 20.6981 24.9429 20.1247 26.9498C18.9779 29.8168 20.1247 31.8237 21.5582 33.8306C22.1316 34.6907 22.705 35.5508 23.5651 36.4109C24.4252 37.5577 24.9986 38.1311 25.572 38.9912C26.1454 39.8513 27.0055 40.7114 27.8656 41.2848C27.8656 41.8582 29.2991 43.2917 29.8725 43.5784Z" fill="#E30F13"/>
<path fill-rule="evenodd" clip-rule="evenodd" d="M55.1022 68.8082C55.9623 70.2417 55.1022 70.8151 53.9554 71.3885C48.7948 73.6821 31.8795 74.2555 26.4322 74.2555C20.9848 74.2555 15.5375 74.2555 10.0902 73.1087C9.23013 72.822 5.50303 72.2486 5.21633 71.3885C5.21633 70.8151 5.78973 70.2417 6.07643 69.955C7.22323 69.0949 9.51683 68.8082 10.9503 68.5215C11.5237 68.5215 12.3838 68.2348 12.6705 68.2348C10.0902 67.9481 2.06262 69.0949 0.342422 71.6752C-0.804379 73.3954 1.20252 73.9688 2.34932 74.5422C6.93653 75.9757 16.6843 76.2624 21.8449 76.5491C29.5859 76.5491 47.9347 76.5491 54.5288 71.9619C54.8155 71.6752 55.6756 71.1018 55.6756 70.5284C56.249 69.6683 55.3889 69.0949 55.1022 68.8082Z" fill="#0089C8"/>
<path fill-rule="evenodd" clip-rule="evenodd" d="M33.0263 46.7321C33.8864 46.4454 36.18 44.4385 36.7534 43.8651C37.6135 43.005 39.047 41.2848 39.047 39.5646C39.047 37.8444 37.9002 35.5508 37.3268 34.404C35.0332 30.9636 33.313 28.9567 36.18 25.2296C37.6135 23.7961 38.7603 22.936 39.9071 21.7892C41.3406 20.3557 43.9209 18.6355 45.9278 17.4887L47.9347 16.0552C46.7879 16.3419 43.9209 17.4887 42.7741 17.7754C41.3406 18.3488 39.3337 19.2089 38.1869 20.069C33.313 22.936 29.0125 27.2365 30.7327 32.9705C31.8795 36.9843 35.6066 39.2779 35.3199 42.1449C35.3199 44.1518 33.5997 45.872 33.0263 46.7321Z" fill="#E30F13"/>
<path fill-rule="evenodd" clip-rule="evenodd" d="M42.7741 65.941C41.3406 65.3676 40.1938 64.7942 39.047 63.9341C38.1869 63.3607 38.4736 63.6474 37.6135 63.6474C33.8864 64.5075 27.579 64.5075 23.2785 64.5075C22.1317 64.5075 19.2647 64.5075 18.6913 63.3607C18.4046 62.7873 18.6913 62.2139 18.978 61.9272C16.3977 62.5006 13.5307 64.7942 17.2578 66.5145C21.5583 68.5214 30.1593 68.5214 34.7465 67.6613C36.18 67.948 42.2007 66.5144 42.7741 65.941Z" fill="#0089C8"/>
<path fill-rule="evenodd" clip-rule="evenodd" d="M43.9209 57.3399C42.7741 57.0532 41.914 56.4798 41.0539 55.9064C40.4805 55.333 40.7672 55.6197 39.3337 55.6197C34.7465 56.4798 21.2715 57.6266 17.2577 56.1931C16.6843 55.9064 16.1109 55.6197 16.1109 55.0463C16.1109 54.4729 16.6843 53.8995 16.971 53.6128C13.8173 53.8995 10.9503 57.0532 14.9641 58.4867C19.5513 60.2069 29.8725 60.2069 34.7465 59.6335C36.7534 59.0601 42.7741 57.9133 43.9209 57.3399Z" fill="#0089C8"/>
<path fill-rule="evenodd" clip-rule="evenodd" d="M47.0746 47.0188C46.5012 47.0188 45.6411 47.3055 45.0677 47.3055C44.4943 47.3055 43.6342 47.5922 43.0608 47.5922C38.7603 48.1656 34.1731 48.739 30.1593 49.0257C27.0056 49.3124 14.6775 49.5991 12.6706 47.8789C12.6706 47.0188 13.5307 46.7321 13.8174 46.4454C15.8243 45.2986 18.1179 45.0119 20.1248 44.1518C17.2578 43.8651 10.0903 45.872 7.51 47.5922C4.643 49.3124 9.5169 50.1725 11.2371 50.1725C21.5583 51.606 31.3061 50.7459 41.3406 49.3124C43.0608 49.0257 43.3475 49.3124 44.4943 48.4523C45.3544 48.1656 46.5012 47.5922 47.0746 47.0188Z" fill="#0089C8"/>
<path fill-rule="evenodd" clip-rule="evenodd" d="M11.5237 77.9825C14.3907 79.1293 20.6981 79.9894 23.8518 80.2761C28.439 80.5628 33.3129 80.5628 37.9001 80.2761C43.9208 79.9894 50.8016 79.1293 55.9622 76.549C57.109 75.9756 59.4026 74.5421 59.6893 72.8219C59.4026 73.1086 59.1159 73.3953 58.5425 73.682C49.3681 79.9894 28.439 79.416 17.5444 78.5559L11.5237 77.9825Z" fill="#0089C8"/>
<path fill-rule="evenodd" clip-rule="evenodd" d="M49.0815 44.725C51.3751 44.1516 53.9554 44.4383 55.3889 45.8718C56.8224 47.3053 56.8224 49.8856 55.9623 51.8925C54.5288 54.4728 51.3751 57.0531 48.7947 58.4866C48.2213 58.7733 47.9346 59.06 47.6479 59.3467C49.3682 59.06 53.382 57.3398 54.8155 56.4797C56.8224 55.3329 58.8293 53.6127 59.6894 51.3191C60.8362 48.1654 59.116 45.5851 57.1091 44.4383C55.9623 43.8649 54.5288 43.2915 53.0953 43.5782C51.6618 43.2915 49.6549 43.8649 49.0815 44.725Z" fill="#0089C8"/>
</svg>

<svg xmlns="http://www.w3.org/2000/svg" width="150" height="81" fill="none" fill-rule="evenodd" xmlns:v="https://vecta.io/nano"><path d="M97.821 59.347c0 .573-1.433 1.434-1.72 1.434-2.007 1.147-4.874 2.007-6.594.287s-1.147-5.161.573-6.307c.86-.573 2.294-.86 3.441-.86s3.154-.287 4.301-.287v5.734zM84.632 42.145l.86 3.154c1.433-.287 2.007-.86 4.014-1.147 1.433-.287 3.154-.573 4.874-.287s2.58.86 3.154 2.007c.287.573.573 1.433.573 2.007v2.58l-5.734.573c-4.874.573-9.748 3.154-8.888 9.174.573 3.727 2.58 5.447 6.307 6.021 2.007.287 3.44 0 5.161-.86.86-.287 1.433-.573 2.007-1.147.86-.573 1.433-1.147 1.72-1.434l.573 2.58h4.014V53.9v-5.734c0-2.007 0-3.44-1.147-4.587-2.58-4.3-8.314-4.014-13.188-2.867-1.147 0-3.727.86-4.3 1.434zm60.207 17.489c-.286.287-.573.573-1.146.86-1.147.86-2.581 1.434-4.014 1.72-4.301.573-5.447-4.014-4.014-6.307 1.434-2.58 6.021-2.294 8.888-2.294l.286 6.021zm-13.474-17.489c0 .573.573 2.58.86 3.154.86-.287 2.293-.86 4.013-1.147 2.581-.573 6.595-.86 8.028 1.72.573 1.147.86 4.301.573 4.587s-2.293.287-2.867.287c-2.867.287-5.16.287-7.454 1.72-2.58 1.434-4.587 3.727-4.3 7.741.573 3.727 2.58 5.447 6.307 6.021 2.867.287 4.874-.287 7.168-1.72.86-.573 1.433-1.147 1.72-1.433l.573 2.58H150V48.452c0-2.007-.287-3.44-1.147-4.874-2.58-4.3-8.601-4.014-13.188-2.867-1.147 0-3.44.86-4.3 1.434zm-17.489 23.223h6.307c.287 0 .573-1.147.86-1.434.287-.573.287-.86.574-1.433.286-.86.86-2.007 1.146-2.867 1.434-4.014 2.867-8.601 3.727-12.615.287-1.147 1.434-6.021 1.434-6.881h-4.587c-1.147 0-.574 0-.86 2.007-.287 2.294-.86 4.301-1.147 6.307-.287 1.434-3.154 10.895-3.441 11.468l-1.433-5.161c-.573-1.72-.86-3.44-1.434-4.874l-2.58-6.881-.86-2.58h-5.447c0 .573 3.727 11.755 4.014 12.615.573 2.007 1.433 4.014 2.006 6.307.287 2.007 1.147 4.014 1.721 6.021zM74.025 39.851V61.64c0 4.014-1.434 8.601-5.447 10.035.287.573 2.007 2.294 2.58 2.867 1.433-.287 3.44-1.434 4.014-2.294 1.147-1.147 2.007-2.007 2.867-3.727 1.72-3.44 1.433-7.167 1.433-11.468V31.25h-5.447v8.601zm-44.152 3.727l-1.72-2.58-1.72-2.58c-.86-1.72-2.007-3.727-2.58-5.734-.86-3.727 1.433-6.307 3.44-8.601.287-.573.86-.86 1.147-1.147l7.454-7.454c2.294-2.294 3.727-4.874 4.014-8.601C40.194 4.874 39.62.86 38.187 0c.287 2.867.573 4.874-.573 8.028-1.433 3.44-3.727 5.447-6.307 7.454l-7.167 6.307c-1.434 1.147-3.44 3.154-4.014 5.161-1.147 2.867 0 4.874 1.433 6.881.573.86 1.147 1.72 2.007 2.58l2.007 2.58s1.434 1.72 2.294 2.294c0 .573 1.433 2.007 2.007 2.294z" fill="#e30f13"/><path d="M55.102 68.808c.86 1.433 0 2.007-1.147 2.58-5.161 2.294-22.076 2.867-27.523 2.867s-10.895 0-16.342-1.147c-.86-.287-4.587-.86-4.874-1.72 0-.573.573-1.147.86-1.433 1.147-.86 3.44-1.147 4.874-1.433.573 0 1.434-.287 1.72-.287-2.58-.287-10.608.86-12.328 3.44-1.147 1.72.86 2.294 2.007 2.867 4.587 1.434 14.335 1.72 19.496 2.007 7.741 0 26.09 0 32.684-4.587.287-.287 1.147-.86 1.147-1.433.573-.86-.287-1.434-.573-1.72z" fill="#0089c8"/><path d="M33.026 46.732c.86-.287 3.154-2.294 3.727-2.867.86-.86 2.294-2.58 2.294-4.3s-1.147-4.014-1.72-5.161c-2.294-3.44-4.014-5.447-1.147-9.174l3.727-3.44c1.434-1.434 4.014-3.154 6.021-4.3l2.007-1.434c-1.147.287-4.014 1.434-5.161 1.72-1.433.573-3.44 1.433-4.587 2.294-4.874 2.867-9.174 7.168-7.454 12.902 1.147 4.014 4.874 6.307 4.587 9.174 0 2.007-1.72 3.727-2.294 4.587z" fill="#e30f13"/><path d="M42.774 65.941c-1.433-.573-2.58-1.147-3.727-2.007-.86-.573-.573-.287-1.433-.287-3.727.86-10.035.86-14.335.86-1.147 0-4.014 0-4.587-1.147-.287-.573 0-1.147.287-1.434-2.58.573-5.447 2.867-1.72 4.587 4.301 2.007 12.902 2.007 17.489 1.147 1.434.287 7.454-1.147 8.028-1.72zm1.147-8.601c-1.147-.287-2.007-.86-2.867-1.434-.573-.573-.287-.287-1.72-.287-4.587.86-18.062 2.007-22.076.573-.573-.287-1.147-.573-1.147-1.147s.573-1.147.86-1.434c-3.154.287-6.021 3.44-2.007 4.874 4.587 1.72 14.908 1.72 19.782 1.147 2.007-.573 8.028-1.72 9.174-2.294zm3.154-10.321c-.573 0-1.433.287-2.007.287s-1.434.287-2.007.287c-4.3.573-8.888 1.147-12.901 1.434-3.154.287-15.482.573-17.489-1.147 0-.86.86-1.147 1.147-1.434 2.007-1.147 4.301-1.434 6.307-2.294-2.867-.287-10.035 1.72-12.615 3.44-2.867 1.72 2.007 2.58 3.727 2.58 10.321 1.434 20.069.573 30.104-.86 1.72-.287 2.007 0 3.154-.86.86-.287 2.007-.86 2.58-1.434zM11.524 77.983c2.867 1.147 9.174 2.007 12.328 2.294a114.71 114.71 0 0 0 14.048 0c6.021-.287 12.901-1.147 18.062-3.727 1.147-.573 3.44-2.007 3.727-3.727-.287.287-.573.573-1.147.86-9.174 6.307-30.103 5.734-40.998 4.874l-6.021-.573zm37.558-33.258c2.294-.573 4.874-.287 6.307 1.147s1.434 4.014.573 6.021c-1.434 2.58-4.587 5.161-7.168 6.594-.573.287-.86.573-1.147.86 1.72-.287 5.734-2.007 7.168-2.867 2.007-1.147 4.014-2.867 4.874-5.161 1.147-3.154-.573-5.734-2.58-6.881-1.147-.573-2.58-1.147-4.014-.86-1.434-.287-3.44.287-4.014 1.147z" fill="#0089c8"/></svg>
